X: 1236
T: An Dro Evit Jakeza
R: reel
M: 4/4
K: Dmixolydian
|:d2A2 A2FG|A2AB ABGE|d2A2 A2FG|1 AGAB cAGE:|2 AGAB cAGF||
E2B2 B2AG|A2GA B2B2|AGAB A2GF|E2FG ABAF|D2EF G2F2|
E2B2 B2AG|A2GA B2B2|AGAB c2Bc||

